X:1
T:A minor Stephen Jenks, 1803
T:Isaac Watts, 1707 (Hymn 9, Book 2)     86. 86. (C. M.)
T:Alarm
T:Transcribed from The American Compiler, 1803.
%%score [ 1 2 3 4 ]
L:1/8
Q:1/4=150
M:3/2
K:C
V:1 treble nm="Tr." snm="Tr."
V:2 treble nm="C." snm="C."
V:3 treble-8 nm="T." snm="T."
V:4 bass nm="B." snm="B."
V:1
 A4 | B8 A4 | e8 (3(A2 B2 c2) | (B4 A4) ^G4 | A12 | z8 c4 | c8 c4 | B8 d4 | e8 c4 | B8 G4 | A8 d4 | %11
w: 1.~Why|do we|mourn de- * *|par- * ting|friends,|Or|shake at|death's a-|larms? 'Tis|but the|voice that|
w: 2.~Are|we not|ten- ding * *|up- * ward|too|As|fast as|time can|move? Nor|would we|wish the|
 c8 A4 | ^G8 B4 | (e3 d c4) (d2 e2) | (f3 e d2 c2) B4 | A12 |] %16
w: Je- sus|sends To|call~ _ _ them~ _|to~ _ _ _ his|arms.|
w: hours more|slow To|keep~ _ _ us~ _|from~ _ _ _ our|love.|
V:2
 E4 | E8 E4 | G8 G4 | (F4 E4) E4 | E12 | z8 E4 | G8 G4 | G8 G4 | G8 G4 | G8 E4 | A8 G4 | A8 A4 | %12
w: 3.~Why|should we|trem- ble|to * con-|vey|Their|bo- dies|to the|tomb? There|the dear|flesh of|Je- sus|
w: 4.~The|graves of|all his|saints * he|blessed,|And|sof- tened|eve- ry|bed; Where|should the|dy- ing|mem- bers|
 E8 E4 | E8 (G2 A2) | A8 E4 | E12 |] %16
w: lay, And|left a *|long per-|fume.|
w: rest But|with the *|dy- ing|head?|
V:3
 A4 | ^G8 c4 | B8 e4 | (d4 c4) B4 | A12 | z8 e4 | e8 e4 | d8 B4 | c8 c4 | d8 B4 | e8 G4 | A8 c4 | %12
w: 5.~Thence|he a-|rose, a-|scen- * ding|high,|And|showed our|feet the|way Up|to the|Lord our|flesh shall|
w: 6.~Then|let the|last loud|trum- * pet|sound,|And|bid our|kin- dred|rise; A-|wake, ye|na- tions|un- der|
 B8 G4 | (c3 d e4) (f2 e2) | (d3 c B2 A2) ^G4 | A12 |] %16
w: fly, At|the~ _ _ great~ _|ri- * * * sing|day.|
w: ground; Ye|saints,~ _ _ a- *|scend~ _ _ _ the|skies.|
V:4
 A,,4 | E,8 A,4 | E,8 C,4 | (G,4 A,4) E,4 | A,,12 | z8 A,,4 | C,8 C,4 | G,8 G,,4 | C,8 C,4 | %9
 G,8 G,4 | C8 B,4 | A,8 D,4 | E,8 E,4 | (A,3 B, C4) (B,2 A,2) | D,8 E,4 | A,,12 |] %16

